icons/pic2up_icon.svg

<svg width="237.24mm" height="237.4mm" version="1.1" viewBox="0 0 237.24 237.4" xmlns="http://www.w3.org/2000/svg" xmlns:xlink="http://www.w3.org/1999/xlink">
 <defs>
  <clipPath id="clipPath936">
   <g transform="translate(9.1456 -103.07)" style="fill:#000000" aria-label="p2u">
    <path d="m39.118 151.6q-0.52431-5.8858 4.7123-9.4971t10.216-2.1129q4.9791 1.4984 9.7045 8.3505 4.687 6.7964 4.0299 12.757-0.60136 5.9223-6.5064 9.9946-3.0082 2.0746-6.4929 2.5048l6.2237 9.0247q2.4012-0.0941 5.1597-1.3388l1.2755 2.3263-14.874 10.258-1.3523-2.4377q1.5694-1.6578 1.9364-3.3904l-19.171-27.798q-1.383-2.0055-2.6624-2.1918-1.2621-0.28048-3.2887 0.95273l-1.3312-2.2879q6.8733-6.9595 7.9414-8.2715l1.3485-0.19015zm4.8447-4.6563q-2.3955 1.652-2.1746 4.9522 0.27656 3.2618 3.35 7.7184l7.7604 11.253q2.2168 0.1153 4.4451-1.4214 6.0165-4.1492-2.0513-15.848-6.7616-9.8046-11.33-6.6544z" style="font-variant-caps:normal;font-variant-east-asian:normal;font-variant-ligatures:normal;font-variant-numeric:normal;stroke-width:1.6918"/>
    <path d="m110.79 155.24-0.0277 6.6317-30.655-0.12787 0.01637-3.9249q11.143-10.646 15.433-17.26 4.2912-6.6816 4.3205-13.719 0.02936-7.0377-4.8429-7.058-2.1654-9e-3 -3.5273 2.0154-1.3616 1.9568-1.372 4.4606-0.01016 2.4361 1.4033 4.2692-2.4457 2.2906-5.2202 2.279-2.7068-0.0113-4.3247-1.5068-1.6176-1.5632-1.6055-4.473 0.02004-4.8046 4.0253-7.8331 4.0732-3.0959 10.84-3.0677 5.0076 0.0209 8.5191 1.795 6.6852 3.4115 6.6525 11.261-0.0226 5.4136-4.1762 11.554-4.1533 6.0731-13.663 14.628z" style="font-variant-caps:normal;font-variant-east-asian:normal;font-variant-ligatures:normal;font-variant-numeric:normal;stroke-width:1.6918"/>
    <path d="m129.43 168.92q-3.8091-2.5819-4.549-6.4352-0.73993-3.8534 1.9938-7.8865l7.8595-11.595q1.3669-2.0166 1.0762-3.2763-0.19664-1.2778-2.0812-2.7187l1.6488-2.0707q0.84211 0.32554 3.4606 1.5281 5.947 2.8047 8.0812 3.5156l0.61055 1.1496-12.416 18.317q-3.645 5.3775-0.172 7.7315 1.4564 0.98718 3.3703 1.0582 1.9699 0.10898 3.7594-0.72189l9.0744-13.388q1.3669-2.0166 1.0762-3.2763-0.25266-1.3158-2.1373-2.7567l1.6488-2.0707q0.8421 0.32554 3.4605 1.5281 5.947 2.8047 8.0812 3.5156l0.66657 1.1876-15.985 23.583q0.51094 1.8996 2.8399 4.1322l-1.4969 1.8466-10.699-7.252 1.8698-3.9647q-5.9447 1.7749-11.042-1.6802z" style="font-variant-caps:normal;font-variant-east-asian:normal;font-variant-ligatures:normal;font-variant-numeric:normal;stroke-width:1.6918"/>
   </g>
  </clipPath>
  <filter id="filter1295" x="-3.7862e-5" y="-2.3773e-5" width="1.0001" height="1" style="color-interpolation-filters:sRGB">
   <feGaussianBlur stdDeviation="0.0029964756"/>
  </filter>
  <filter id="filter1295-1" x="-3.7862e-5" y="-2.3773e-5" width="1.0001" height="1" style="color-interpolation-filters:sRGB">
   <feGaussianBlur stdDeviation="0.0029964756"/>
  </filter>
 </defs>
 <g transform="translate(12.436 58.549)">
  <g transform="matrix(1.2489 0 0 .78471 -24.032 41.161)" style="filter:url(#filter1295)">
   <rect x="9.2914" y="-127.06" width="189.94" height="302.51" style="fill:#d7d7f4;opacity:.997;paint-order:stroke fill markers;stroke-dasharray:0.104852, 0.0349509;stroke-linejoin:round;stroke-miterlimit:0;stroke-width:.034951;stroke:#eb8700"/>
   <ellipse cx="103.1" cy="23.783" rx="79.944" ry="71.747" style="fill:#330080;paint-order:stroke fill markers;stroke-dasharray:0.0677001, 0.0225669;stroke-linejoin:round;stroke-miterlimit:0;stroke-width:.022567;stroke:#eb8700"/>
   <text style="fill:#aaaaff;font-family:sans-serif;font-size:67.671px;letter-spacing:0px;line-height:1.25;stroke-width:1.6918;word-spacing:0px" xml:space="preserve"><textPath style="fill:#aaaaff;font-family:Caladea;font-size:67.671px;font-variant-caps:normal;font-variant-east-asian:normal;font-variant-ligatures:normal;font-variant-numeric:normal;font-weight:bold" xlink:href="#path850">p2u</textPath></text>
   <path id="path850" d="m50.142 38.272c5.5401-0.13782 28.194-32.858 52.726-22.479 22.944-9.9391 53.632 23.452 53.632 23.452" style="fill:none;stroke-width:.26458px;stroke:#000000"/>
   <path transform="translate(-2.7231 -43.046)" d="m169.4 77.117a61.63 31.997 0 0 1-61.63 31.997 61.63 31.997 0 0 1-61.63-31.997 61.63 31.997 0 0 1 61.63-31.997 61.63 31.997 0 0 1 61.63 31.997" clip-path="url(#clipPath936)" style="fill:#d5d5ff;paint-order:stroke fill markers;stroke-dasharray:0.039696, 0.0132321;stroke-linejoin:round;stroke-miterlimit:0;stroke-width:.013232;stroke:#eb8700"/>
   <path d="m113.09 60.94-10.553-5.7126-10.689 5.455 2.1719-11.802-8.4911-8.48 11.896-1.5815 5.441-10.696 5.18 10.825 11.854 1.8695-8.6942 8.2716z" style="fill:#d7d7f4;paint-order:stroke fill markers;stroke-dasharray:0.119062, 0.0396875;stroke-linejoin:round;stroke-miterlimit:0;stroke-width:.039688;stroke:#eb8700"/>
   <path transform="matrix(.10592 0 0 .16859 65.091 48.772)" d="m130.1 97.389-49.817-16.943-50.456 16.179 10.252-35.003-40.082-25.15 56.153-4.6904 25.684-31.722 24.452 32.105 55.955 5.5447-41.04 24.532z" style="fill:#d7d7f4;filter:url(#filter1295);paint-order:stroke fill markers;stroke-dasharray:0.44549, 0.148497;stroke-linejoin:round;stroke-miterlimit:0;stroke-width:.1485;stroke:#eb8700"/>
   <path transform="matrix(.10592 0 0 .16859 123.48 48.691)" d="m130.1 97.389-49.817-16.943-50.456 16.179 10.252-35.003-40.082-25.15 56.153-4.6904 25.684-31.722 24.452 32.105 55.955 5.5447-41.04 24.532z" style="fill:#d7d7f4;filter:url(#filter1295-1);paint-order:stroke fill markers;stroke-dasharray:0.44549, 0.148497;stroke-linejoin:round;stroke-miterlimit:0;stroke-width:.1485;stroke:#eb8700"/>
  </g>
 </g>
</svg>

<?xml version="1.0" encoding="UTF-8" standalone="no"?>
<svg
   xmlns:dc="http://purl.org/dc/elements/1.1/"
   xmlns:cc="http://creativecommons.org/ns#"
   xmlns:rdf="http://www.w3.org/1999/02/22-rdf-syntax-ns#"
   xmlns:svg="http://www.w3.org/2000/svg"
   xmlns="http://www.w3.org/2000/svg"
   xmlns:xlink="http://www.w3.org/1999/xlink"
   xmlns:sodipodi="http://sodipodi.sourceforge.net/DTD/sodipodi-0.dtd"
   xmlns:inkscape="http://www.inkscape.org/namespaces/inkscape"
   inkscape:version="1.0rc1 (09960d6f05, 2020-04-09)"
   inkscape:export-ydpi="3.4300001"
   inkscape:export-xdpi="3.4300001"
   inkscape:export-filename="/home/jan/Schreibtisch/git/pic2up/icons/pic2up_32.png"
   sodipodi:docname="pic2up_icon.svg"
   id="svg40"
   viewBox="0 0 237.24 237.4"
   version="1.1"
   height="237.4mm"
   width="237.24mm">
  <metadata
     id="metadata44">
    <rdf:RDF>
      <cc:Work
         rdf:about="">
        <dc:format>image/svg+xml</dc:format>
        <dc:type
           rdf:resource="http://purl.org/dc/dcmitype/StillImage" />
      </cc:Work>
    </rdf:RDF>
  </metadata>
  <sodipodi:namedview
     inkscape:current-layer="g36"
     inkscape:window-maximized="1"
     inkscape:window-y="32"
     inkscape:window-x="1920"
     inkscape:cy="448.62991"
     inkscape:cx="448.32757"
     inkscape:zoom="0.9006389"
     showgrid="false"
     id="namedview42"
     inkscape:window-height="1020"
     inkscape:window-width="1920"
     inkscape:pageshadow="2"
     inkscape:pageopacity="0"
     guidetolerance="10"
     gridtolerance="10"
     objecttolerance="10"
     borderopacity="1"
     bordercolor="#666666"
     pagecolor="#ffffff" />
  <defs
     id="defs17">
    <clipPath
       id="clipPath936">
      <g
         id="g8"
         aria-label="p2u"
         style="fill:#000000"
         transform="translate(9.1456 -103.07)">
        <path
           id="path2"
           style="font-variant-caps:normal;font-variant-east-asian:normal;font-variant-ligatures:normal;font-variant-numeric:normal;stroke-width:1.6918"
           d="m39.118 151.6q-0.52431-5.8858 4.7123-9.4971t10.216-2.1129q4.9791 1.4984 9.7045 8.3505 4.687 6.7964 4.0299 12.757-0.60136 5.9223-6.5064 9.9946-3.0082 2.0746-6.4929 2.5048l6.2237 9.0247q2.4012-0.0941 5.1597-1.3388l1.2755 2.3263-14.874 10.258-1.3523-2.4377q1.5694-1.6578 1.9364-3.3904l-19.171-27.798q-1.383-2.0055-2.6624-2.1918-1.2621-0.28048-3.2887 0.95273l-1.3312-2.2879q6.8733-6.9595 7.9414-8.2715l1.3485-0.19015zm4.8447-4.6563q-2.3955 1.652-2.1746 4.9522 0.27656 3.2618 3.35 7.7184l7.7604 11.253q2.2168 0.1153 4.4451-1.4214 6.0165-4.1492-2.0513-15.848-6.7616-9.8046-11.33-6.6544z" />
        <path
           id="path4"
           style="font-variant-caps:normal;font-variant-east-asian:normal;font-variant-ligatures:normal;font-variant-numeric:normal;stroke-width:1.6918"
           d="m110.79 155.24-0.0277 6.6317-30.655-0.12787 0.01637-3.9249q11.143-10.646 15.433-17.26 4.2912-6.6816 4.3205-13.719 0.02936-7.0377-4.8429-7.058-2.1654-9e-3 -3.5273 2.0154-1.3616 1.9568-1.372 4.4606-0.01016 2.4361 1.4033 4.2692-2.4457 2.2906-5.2202 2.279-2.7068-0.0113-4.3247-1.5068-1.6176-1.5632-1.6055-4.473 0.02004-4.8046 4.0253-7.8331 4.0732-3.0959 10.84-3.0677 5.0076 0.0209 8.5191 1.795 6.6852 3.4115 6.6525 11.261-0.0226 5.4136-4.1762 11.554-4.1533 6.0731-13.663 14.628z" />
        <path
           id="path6"
           style="font-variant-caps:normal;font-variant-east-asian:normal;font-variant-ligatures:normal;font-variant-numeric:normal;stroke-width:1.6918"
           d="m129.43 168.92q-3.8091-2.5819-4.549-6.4352-0.73993-3.8534 1.9938-7.8865l7.8595-11.595q1.3669-2.0166 1.0762-3.2763-0.19664-1.2778-2.0812-2.7187l1.6488-2.0707q0.84211 0.32554 3.4606 1.5281 5.947 2.8047 8.0812 3.5156l0.61055 1.1496-12.416 18.317q-3.645 5.3775-0.172 7.7315 1.4564 0.98718 3.3703 1.0582 1.9699 0.10898 3.7594-0.72189l9.0744-13.388q1.3669-2.0166 1.0762-3.2763-0.25266-1.3158-2.1373-2.7567l1.6488-2.0707q0.8421 0.32554 3.4605 1.5281 5.947 2.8047 8.0812 3.5156l0.66657 1.1876-15.985 23.583q0.51094 1.8996 2.8399 4.1322l-1.4969 1.8466-10.699-7.252 1.8698-3.9647q-5.9447 1.7749-11.042-1.6802z" />
      </g>
    </clipPath>
    <filter
       style="color-interpolation-filters:sRGB"
       height="1"
       width="1.0001"
       y="-2.3773e-5"
       x="-3.7862e-5"
       id="filter1295">
      <feGaussianBlur
         id="feGaussianBlur11"
         stdDeviation="0.0029964756" />
    </filter>
    <filter
       style="color-interpolation-filters:sRGB"
       height="1"
       width="1.0001"
       y="-2.3773e-5"
       x="-3.7862e-5"
       id="filter1295-1">
      <feGaussianBlur
         id="feGaussianBlur14"
         stdDeviation="0.0029964756" />
    </filter>
  </defs>
  <g
     id="g38"
     transform="translate(12.436,58.549)">
    <g
       id="g36"
       style="filter:url(#filter1295)"
       transform="matrix(1.2489,0,0,0.78471,-24.032,41.161)">
      <rect
         id="rect19"
         style="opacity:0.997;fill:#d7d7f4;stroke:#eb8700;stroke-width:0.034951;stroke-linejoin:round;stroke-miterlimit:0;stroke-dasharray:0.104852, 0.0349509;paint-order:stroke fill markers"
         height="302.51001"
         width="189.94"
         y="-127.06"
         x="9.2914" />
      <ellipse
         id="ellipse21"
         style="fill:#330080;stroke:#eb8700;stroke-width:0.022567;stroke-linejoin:round;stroke-miterlimit:0;stroke-dasharray:0.0677001, 0.0225669;paint-order:stroke fill markers"
         ry="71.747002"
         rx="79.944"
         cy="23.783001"
         cx="103.1" />
      <text
         id="text25"
         xml:space="preserve"
         style="font-size:67.671px;line-height:1.25;font-family:sans-serif;letter-spacing:0px;word-spacing:0px;fill:#aaaaff;stroke-width:1.6918"><textPath
           id="textPath23"
           xlink:href="#path850"
           style="font-weight:bold;font-size:67.671px;font-family:Caladea;font-variant-ligatures:normal;font-variant-caps:normal;font-variant-numeric:normal;font-variant-east-asian:normal;fill:#aaaaff">p2u</textPath></text>
      <path
         inkscape:connector-curvature="0"
         style="fill:none;stroke:none;stroke-width:0.26458px"
         d="M 50.142,38.272 C 55.6821,38.13418 78.336,5.414 102.868,15.793 125.812,5.8539 156.5,39.245 156.5,39.245"
         id="path850" />
      <path
         inkscape:connector-curvature="0"
         id="path28"
         style="fill:#d5d5ff;stroke:#eb8700;stroke-width:0.013232;stroke-linejoin:round;stroke-miterlimit:0;stroke-dasharray:0.039696, 0.0132321;paint-order:stroke fill markers"
         clip-path="url(#clipPath936)"
         d="M 169.4,77.117 A 61.63,31.997 0 0 1 107.77,109.114 61.63,31.997 0 0 1 46.14,77.117 61.63,31.997 0 0 1 107.77,45.12 61.63,31.997 0 0 1 169.4,77.117"
         transform="translate(-2.7231,-43.046)" />
      <path
         inkscape:connector-curvature="0"
         id="path30"
         style="fill:#d7d7f4;stroke:#eb8700;stroke-width:0.039688;stroke-linejoin:round;stroke-miterlimit:0;stroke-dasharray:0.119062, 0.0396875;paint-order:stroke fill markers"
         d="m 113.09,60.94 -10.553,-5.7126 -10.689,5.455 2.1719,-11.802 -8.4911,-8.48 11.896,-1.5815 5.441,-10.696 5.18,10.825 11.854,1.8695 -8.6942,8.2716 z" />
      <path
         inkscape:connector-curvature="0"
         id="path32"
         style="fill:#d7d7f4;stroke:#eb8700;stroke-width:0.1485;stroke-linejoin:round;stroke-miterlimit:0;stroke-dasharray:0.44549, 0.148497;paint-order:stroke fill markers;filter:url(#filter1295)"
         d="M 130.1,97.389 80.283,80.446 29.827,96.625 40.079,61.622 -0.003,36.472 56.15,31.7816 81.834,0.0596 l 24.452,32.105 55.955,5.5447 -41.04,24.532 z"
         transform="matrix(0.10592,0,0,0.16859,65.091,48.772)" />
      <path
         inkscape:connector-curvature="0"
         id="path34"
         style="fill:#d7d7f4;stroke:#eb8700;stroke-width:0.1485;stroke-linejoin:round;stroke-miterlimit:0;stroke-dasharray:0.44549, 0.148497;paint-order:stroke fill markers;filter:url(#filter1295-1)"
         d="M 130.1,97.389 80.283,80.446 29.827,96.625 40.079,61.622 -0.003,36.472 56.15,31.7816 81.834,0.0596 l 24.452,32.105 55.955,5.5447 -41.04,24.532 z"
         transform="matrix(0.10592,0,0,0.16859,123.48,48.691)" />
    </g>
  </g>
</svg>
